X: 7
T: The Geese In The Bog
R: jig
M: 6/8
L: 1/8
K: Amin
|:g|gBB dBB|gBB def|gBB d A2|Bee e2 f|
|gBB dBB|gBB def|gfedA2|Bee e2:|
|:d|e2 a egg|e2 a ged|e2 a egg|eaa a2 d|
|e2 a egg|e2 a ged|gfe d A2|Bee e2:|
|:g|gBB BBB|dBB BBB|gBB d A2|Bee e2 f|
|gBB BBB|dBB BBB|gfe d A2|Bee e2:|
|:d|eaa egg|eaa ged|eaa egg|eaa a2 d|
|eaa egg|eaa ged|gfe d A2|Bee e2:|


Tune 43	Setting 12464

